X: 23433
T: Leslie's March
R: jig
M: 6/8
K: Dmajor
|:d3 ded|dcB ABc|dcB AGF|AGF E2d|
e3 ede|fed eag|fef d2A|def e2d:|
|:fed eAA|fed eAA|gfe fBB|gfe fBB|
fed eAA|fed eag|f2e d2A|def e2d:|
|:dfa dfa|dfa afd|egb egb|egb bge|
dfa dfa|dfa a2g|fef d2A|def e2d:|

